icons/Globe.svg

<svg width="24" height="24" viewBox="0 0 24 24" fill="none" xmlns="http://www.w3.org/2000/svg">
<path fill-rule="evenodd" clip-rule="evenodd" d="M14.963 19.709C15.9512 18.3886 16.6869 16.8968 17.133 15.309C18.221 15.209 19.083 15.1 19.692 15.009C19.2715 16.0768 18.6341 17.0457 17.8202 17.8547C17.0062 18.6637 16.0333 19.2951 14.963 19.709ZM4.306 15C4.918 15.091 5.785 15.2 6.865 15.3C7.31089 16.8902 8.04693 18.3843 9.036 19.707C7.9648 19.2924 6.99131 18.66 6.17713 17.8498C5.36295 17.0396 4.7258 16.0692 4.306 15ZM9.087 4.271C8.09607 5.60106 7.35101 7.09762 6.887 8.69C5.787 8.79 4.923 8.9 4.31 8.99C4.7336 7.91405 5.37735 6.93849 6.19998 6.12585C7.0226 5.31321 8.00596 4.68143 9.087 4.271ZM19.694 9C19.078 8.908 18.206 8.8 17.117 8.7C16.6535 7.10556 15.9084 5.60694 14.917 4.275C15.9986 4.68609 16.9823 5.3188 17.805 6.13251C18.6277 6.94621 19.2711 7.92295 19.694 9ZM17.419 10.04C18.694 10.165 19.619 10.306 20.101 10.387C20.3141 11.4541 20.3141 12.5529 20.101 13.62C19.626 13.703 18.711 13.844 17.425 13.97C17.53 13.3186 17.5829 12.6598 17.583 12C17.5825 11.3426 17.5276 10.6864 17.419 10.038V10.04ZM12.652 14.219V9.782C13.917 9.796 15.065 9.851 16.068 9.923C16.2067 10.6067 16.2771 11.3024 16.278 12C16.2784 12.6988 16.2114 13.396 16.078 14.082C15.078 14.153 13.934 14.205 12.655 14.219H12.652ZM11.355 3.767V8.477C10.231 8.489 9.208 8.529 8.297 8.585C8.91511 6.79119 9.91201 5.1514 11.22 3.777L11.355 3.767ZM12.796 3.777C14.1081 5.15033 15.1064 6.79214 15.722 8.589C14.804 8.531 13.778 8.489 12.66 8.477V3.767L12.797 3.777H12.796ZM7.722 12C7.72285 11.3007 7.79387 10.6032 7.934 9.918C8.929 9.848 10.073 9.795 11.348 9.782V14.219C10.08 14.205 8.929 14.15 7.924 14.077C7.79018 13.3928 7.72253 12.6972 7.722 12ZM3.739 12C3.73902 11.4567 3.79262 10.9148 3.899 10.382C4.375 10.299 5.292 10.157 6.582 10.031C6.47267 10.6816 6.41748 11.3402 6.417 12C6.41731 12.6571 6.46981 13.3132 6.574 13.962C5.3 13.837 4.38 13.7 3.9 13.615C3.79355 13.0832 3.73962 12.5423 3.739 12ZM11.2 20.222C9.86871 18.8624 8.86583 17.2165 8.268 15.41C9.191 15.469 10.222 15.51 11.348 15.524V20.233L11.202 20.222H11.2ZM12.802 20.222L12.656 20.233V15.523C13.789 15.511 14.819 15.471 15.735 15.414C15.1358 17.2194 14.1319 18.8639 12.8 20.222H12.802ZM12 2C10.0222 2 8.08879 2.58649 6.44429 3.6853C4.7998 4.78412 3.51808 6.3459 2.7612 8.17317C2.00433 10.0004 1.80629 12.0111 2.19214 13.9509C2.578 15.8907 3.5304 17.6725 4.92893 19.0711C6.32745 20.4696 8.10928 21.422 10.0491 21.8079C11.9889 22.1937 13.9996 21.9957 15.8268 21.2388C17.6541 20.4819 19.2159 19.2002 20.3147 17.5557C21.4135 15.9112 22 13.9778 22 12C21.9971 9.34873 20.9426 6.80688 19.0678 4.93215C17.1931 3.05742 14.6513 2.00291 12 2Z" fill="black"/>
</svg>

<svg xmlns="http://www.w3.org/2000/svg" viewBox="0 0 24 24">
  <path d="M14.963 19.709a13.386 13.386 0 002.17-4.4c1.088-.1 1.95-.209 2.559-.3a8.3 8.3 0 01-4.729 4.7zM4.306 15c.612.091 1.479.2 2.559.3a13.4 13.4 0 002.171 4.407A8.3 8.3 0 014.306 15zM9.087 4.271a13.91 13.91 0 00-2.2 4.419c-1.1.1-1.964.21-2.577.3a8.3 8.3 0 014.777-4.719zM19.694 9c-.616-.092-1.488-.2-2.577-.3a13.918 13.918 0 00-2.2-4.425A8.3 8.3 0 0119.694 9zm-2.275 1.04c1.275.125 2.2.266 2.682.347a8.255 8.255 0 010 3.233c-.475.083-1.39.224-2.676.35.105-.651.158-1.31.158-1.97 0-.657-.055-1.314-.164-1.962v.002zm-4.767 4.179V9.782c1.265.014 2.413.069 3.416.141.139.684.21 1.38.21 2.077 0 .699-.067 1.396-.2 2.082-1 .071-2.144.123-3.423.137h-.003zM11.355 3.767v4.71a60.46 60.46 0 00-3.058.108 13.223 13.223 0 012.923-4.808l.135-.01zm1.441.01a13.122 13.122 0 012.926 4.812c-.918-.058-1.944-.1-3.062-.112v-4.71l.137.01h-.001zM7.722 12c0-.7.072-1.397.212-2.082.995-.07 2.139-.123 3.414-.136v4.437a55.877 55.877 0 01-3.424-.142A10.864 10.864 0 017.722 12zm-3.983 0c0-.543.054-1.085.16-1.618a36.813 36.813 0 012.683-.351c-.11.65-.165 1.31-.165 1.969 0 .657.053 1.313.157 1.962a36.899 36.899 0 01-2.674-.347A8.276 8.276 0 013.739 12zm7.461 8.222a12.484 12.484 0 01-2.932-4.812c.923.059 1.954.1 3.08.114v4.709l-.146-.011H11.2zm1.602 0l-.146.011v-4.71a59.942 59.942 0 003.079-.109 12.482 12.482 0 01-2.935 4.808h.002zM12 2a10 10 0 1010 10A10.01 10.01 0 0012 2z"/>
</svg>
